usr/share/icons/biglinux-icons-material/16/devices/camera-video.svg

<svg width="16" height="16" version="1.1" xmlns="http://www.w3.org/2000/svg">
 <defs>
  <style id="current-color-scheme" type="text/css">.ColorScheme-Text { color:#363636; } .ColorScheme-Highlight { color:#5294e2; }</style>
 </defs>
 <path d="m3 2c-1.662 0-3 1.338-3 3v6c0 1.662 1.338 3 3 3h6c1.662 0 3-1.338 3-3v-0.79883l2.4453 1.6309a1.0001 1.0001 0 0 0 1.5547-0.83203v-6a1.0001 1.0001 0 0 0-1.0273-1 1.0001 1.0001 0 0 0-0.52734 0.16797l-2.4453 1.6309v-0.79883c0-1.662-1.338-3-3-3h-6zm0 1h6c1.108 0 2 0.892 2 2v2 2 2c0 1.108-0.892 2-2 2h-6c-1.108 0-2-0.892-2-2v-6c0-1.108 0.892-2 2-2zm12 2v6l-3-2v-2l3-2z" style="fill:currentColor" class="ColorScheme-Text"/>
</svg>

<svg xmlns="http://www.w3.org/2000/svg" width="16" height="16"><defs><style id="current-color-scheme" type="text/css">.ColorScheme-Highlight{color:#5294e2}</style></defs><path d="M3 2C1.338 2 0 3.338 0 5v6c0 1.662 1.338 3 3 3h6c1.662 0 3-1.338 3-3v-.799l2.445 1.631A1 1 0 0 0 16 11V5a1 1 0 0 0-1.027-1 1 1 0 0 0-.528.168L12 5.798V5c0-1.662-1.338-3-3-3H3zm0 1h6c1.108 0 2 .892 2 2v6c0 1.108-.892 2-2 2H3c-1.108 0-2-.892-2-2V5c0-1.108.892-2 2-2zm12 2v6l-3-2V7l3-2z" style="fill:currentColor;color:#dedede"/></svg>
